assets/images/clients/BMW.svg

<svg width="300" height="120" viewBox="0 0 300 120" fill="none" xmlns="http://www.w3.org/2000/svg">
<g clip-path="url(#clip0_3300_14632)">
<mask id="mask0_3300_14632" style="mask-type:luminance" maskUnits="userSpaceOnUse" x="116" y="27" width="67" height="67">
<path d="M182.456 27.4033H116.77V93.0896H182.456V27.4033Z" fill="white"/>
</mask>
<g mask="url(#mask0_3300_14632)">
<path d="M169.074 60.2469C169.074 71.0028 160.367 79.7095 149.611 79.7095V60.2469H169.074ZM149.611 40.7842V60.2469H130.148C130.148 49.4909 138.855 40.7842 149.611 40.7842Z" fill="#949494"/>
<path d="M149.611 40.7842C160.367 40.7842 169.074 49.4909 169.074 60.2469H149.611V40.7842ZM130.148 60.2469H149.611V79.7095C138.855 79.7095 130.148 71.0028 130.148 60.2469Z" fill="white"/>
<path d="M149.613 40.7838V41.8509C159.755 41.8509 168.008 50.1022 168.008 60.2465H169.075C169.075 49.4983 160.361 40.7838 149.613 40.7838ZM149.613 78.6419C139.47 78.6419 131.217 70.3907 131.217 60.2465H130.15C130.15 70.9948 138.864 79.7091 149.613 79.7091V78.6419ZM149.613 27.4033C131.474 27.4033 116.77 42.1082 116.77 60.2465C116.77 78.3847 131.474 93.0896 149.613 93.0896C167.751 93.0896 182.456 78.3847 182.456 60.2465C182.456 42.1082 167.751 27.4033 149.613 27.4033ZM180.32 60.2465C180.32 77.2049 166.573 90.9539 149.613 90.9539C132.652 90.9539 118.905 77.2049 118.905 60.2465C118.905 43.288 132.654 29.5391 149.613 29.5391C166.571 29.5391 180.32 43.288 180.32 60.2465Z" fill="#949494"/>
<path d="M135.578 44.4033C136.627 43.3054 137.222 42.037 136.172 40.8261C135.601 40.169 134.642 40.0252 133.848 40.349L133.768 40.3797L133.794 40.3107C133.911 39.9984 133.986 39.0021 133.132 38.3143C132.715 37.979 132.192 37.8545 131.664 37.9081C130.678 38.0077 129.919 38.6764 127.855 40.9621C127.232 41.6519 126.325 42.7402 125.781 43.4453L131.451 48.7869C133.33 46.7215 134.096 45.9532 135.578 44.4033ZM128.179 43.0965C129.321 41.7093 130.535 40.4505 131.085 39.9524C131.258 39.7953 131.447 39.6382 131.677 39.5769C132.049 39.4754 132.433 39.7378 132.52 40.1172C132.607 40.4985 132.366 40.8605 132.098 41.1595C131.494 41.8359 129.279 44.1368 129.279 44.1368L128.179 43.0965ZM130.4 45.1887C130.4 45.1887 132.557 42.9241 133.261 42.1999C133.541 41.9124 133.72 41.7381 133.913 41.6442C134.162 41.5236 134.434 41.4986 134.677 41.6595C134.916 41.8186 135.026 42.0926 134.966 42.3646C134.895 42.6885 134.629 42.9969 134.409 43.2326C134.112 43.5487 131.554 46.2674 131.55 46.2713L130.4 45.1887ZM150.262 38.0326L152.077 33.9938L152.193 33.6355L152.16 34.0091L152.351 39.4064C152.988 39.4658 153.645 39.5539 154.294 39.6612L153.999 31.6678C153.092 31.5682 152.189 31.4973 151.286 31.459L149.498 35.8676L149.434 36.1952L149.37 35.8676L147.584 31.459C146.681 31.4973 145.778 31.5682 144.871 31.6678L144.576 39.6612C145.224 39.5539 145.882 39.4677 146.519 39.4064L146.71 34.0091L146.677 33.6355L146.793 33.9938L148.608 38.0326H150.262ZM165.339 46.3882C165.784 46.8633 166.427 47.6296 166.788 48.0952L173.432 43.9069C173.1 43.4759 172.572 42.8206 172.176 42.3588L167.968 45.1217L167.681 45.3669L167.895 45.0566L169.753 41.3741L168.439 40.0693L164.729 41.9144L164.417 42.1271L164.665 41.8416L167.449 37.6648C166.959 37.2509 166.489 36.8716 165.889 36.4117L161.671 43.0045C162.206 43.4127 162.91 44.0123 163.359 44.4205L167.33 42.3742L167.584 42.1883L167.397 42.4412L165.339 46.3882Z" fill="#949494"/>
</g>
</g>
<defs>
<clipPath id="clip0_3300_14632">
<rect width="67" height="67" fill="white" transform="translate(116 27)"/>
</clipPath>
</defs>
</svg>

<svg width="300" height="120" viewBox="0 0 300 120" fill="none" xmlns="http://www.w3.org/2000/svg"><g clip-path="url(#a)"><mask id="b" style="mask-type:luminance" maskUnits="userSpaceOnUse" x="116" y="27" width="67" height="67"><path d="M182.456 27.403H116.77V93.09h65.686V27.403Z" fill="#fff"/></mask><g mask="url(#b)"><path d="M169.074 60.247c0 10.756-8.707 19.463-19.463 19.463V60.247h19.463Zm-19.463-19.463v19.463h-19.463c0-10.756 8.707-19.463 19.463-19.463Z" fill="#949494"/><path d="M149.611 40.784c10.756 0 19.463 8.707 19.463 19.463h-19.463V40.784Zm-19.463 19.463h19.463V79.71c-10.756 0-19.463-8.707-19.463-19.463Z" fill="#fff"/><path d="M149.613 40.784v1.067c10.142 0 18.395 8.251 18.395 18.395h1.067c0-10.748-8.714-19.462-19.462-19.462Zm0 37.858c-10.143 0-18.396-8.251-18.396-18.395h-1.067c0 10.748 8.714 19.462 19.463 19.462v-1.067Zm0-51.239c-18.139 0-32.843 14.705-32.843 32.843 0 18.139 14.704 32.844 32.843 32.844 18.138 0 32.843-14.705 32.843-32.844 0-18.138-14.705-32.843-32.843-32.843Zm30.707 32.843c0 16.959-13.747 30.708-30.707 30.708-16.961 0-30.708-13.75-30.708-30.707 0-16.959 13.749-30.708 30.708-30.708 16.958 0 30.707 13.749 30.707 30.707Z" fill="#949494"/><path d="M135.578 44.403c1.049-1.098 1.644-2.366.594-3.577-.571-.657-1.53-.8-2.324-.477l-.08.03.026-.068c.117-.313.192-1.309-.662-1.997-.417-.335-.94-.46-1.468-.406-.986.1-1.745.768-3.809 3.054-.623.69-1.53 1.778-2.074 2.483l5.67 5.342c1.879-2.066 2.645-2.834 4.127-4.384Zm-7.399-1.306c1.142-1.388 2.356-2.647 2.906-3.145.173-.157.362-.314.592-.375.372-.102.756.16.843.54.087.382-.154.744-.422 1.043-.604.676-2.819 2.977-2.819 2.977l-1.1-1.04Zm2.221 2.092s2.157-2.265 2.861-2.99c.28-.287.459-.46.652-.555.249-.12.521-.145.764.016a.666.666 0 0 1 .289.705c-.071.323-.337.632-.557.868l-2.859 3.038-1.15-1.082Zm19.862-7.156 1.815-4.04.116-.358-.033.374.191 5.397c.637.06 1.294.148 1.943.255l-.295-7.993c-.907-.1-1.81-.17-2.713-.209l-1.788 4.409-.064.327-.064-.327-1.786-4.409c-.903.038-1.806.11-2.713.209l-.295 7.993a28.981 28.981 0 0 1 1.943-.255l.191-5.397-.033-.373.116.358 1.815 4.039h1.654Zm15.077 8.355a28.866 28.866 0 0 1 1.449 1.707l6.644-4.188a43.708 43.708 0 0 0-1.256-1.548l-4.208 2.763-.287.245.214-.31 1.858-3.683-1.314-1.305-3.71 1.845-.312.213.248-.285 2.784-4.177c-.49-.414-.96-.793-1.56-1.253l-4.218 6.593a29.272 29.272 0 0 1 1.688 1.415l3.971-2.046.254-.186-.187.253-2.058 3.947Z" fill="#949494"/></g></g><defs><clipPath id="a"><path fill="#fff" transform="translate(116 27)" d="M0 0h67v67H0z"/></clipPath></defs></svg>
